www/assets/icons/playlist_add_circle.svg

<svg width="24" height="24" viewBox="0 0 24 24" xmlns="http://www.w3.org/2000/svg" fill='currentColor'><path d="M12 2C6.48 2 2 6.48 2 12C2 17.52 6.48 22 12 22C17.52 22 22 17.52 22 12C22 6.48 17.52 2 12 2ZM7 7H14V9H7V7ZM10 15H7V13H10V15ZM7 12V10H14V12H7ZM19 15H17V17H15V15H13V13H15V11H17V13H19V15Z"/></svg>

<svg xmlns="http://www.w3.org/2000/svg" width="24" height="24" viewBox="0 0 24 24" fill='currentColor'><path d="M12 2C6.48 2 2 6.48 2 12s4.48 10 10 10 10-4.48 10-10S17.52 2 12 2M7 7h7v2H7zm3 8H7v-2h3zm-3-3v-2h7v2zm12 3h-2v2h-2v-2h-2v-2h2v-2h2v2h2z"/></svg>
